img/clock.svg

<svg fill="none" height="18" viewBox="0 0 18 18" width="18" xmlns="http://www.w3.org/2000/svg"><path d="m8.99982 0c-4.97043 0-8.99982 4.02951-8.99982 8.99976 0 4.97024 4.02939 9.00024 8.99976 9.00024 4.97034 0 9.00004-4.0298 9.00004-9.00024 0-4.97043-4.0296-8.99976-8.99998-8.99976zm.62148 10.1003c-.00048.0236-.00402.0473-.00732.071-.00234.0177-.00342.0359-.00744.0534-.00402.0181-.01092.0361-.0168.0543-.00702.0219-.01356.0438-.02274.0645-.00174.0036-.00234.0075-.0039.0111-.01356.0289-.02928.056-.0465.0817-.00108.0015-.00252.0031-.0036.0047-.01962.0288-.042.0549-.06552.0795-.00654.0067-.0132.0127-.0201.0191-.0207.0198-.04248.0378-.06564.0543-.00714.0052-.01398.0106-.02148.0156-.0297.0194-.06084.0365-.09324.0505-.00702.0032-.01434.005-.02148.0078-.02736.0106-.05508.0194-.0837.026-.01026.0025-.0204.0047-.03084.0066-.03672.0067-.07392.0113-.1116.0113-.00762 0-.01542-.0023-.02304-.0026-.03612-.0014-.07188-.0042-.10626-.0116-.01074-.0023-.0213-.007-.03204-.0099-.03204-.0087-.06336-.0184-.09324-.0318-.00342-.0017-.00702-.002-.01044-.0036l-3.45093-1.62772c-.31092-.14658-.44412-.51756-.29754-.82849.14658-.31074.51757-.44412.82849-.29754l2.56297 1.20865v-5.37213c0-.34375.27871-.62245.62245-.62245s.62244.2787.62244.62245v6.35413h.00012c0 .0037-.00108.0074-.00108.0112z" fill="#66c4ff"/></svg>

<svg width="18" height="18" viewBox="0 0 18 18" fill="none" xmlns="http://www.w3.org/2000/svg">
<path d="M8.99982 0C4.02939 0 0 4.02951 0 8.99976C0 13.97 4.02939 18 8.99976 18C13.9701 18 17.9998 13.9702 17.9998 8.99976C17.9998 4.02933 13.9702 0 8.99982 0ZM9.6213 10.1003C9.62082 10.1239 9.61728 10.1476 9.61398 10.1713C9.61164 10.189 9.61056 10.2072 9.60654 10.2247C9.60252 10.2428 9.59562 10.2608 9.58974 10.279C9.58272 10.3009 9.57618 10.3228 9.567 10.3435C9.56526 10.3471 9.56466 10.351 9.5631 10.3546C9.54954 10.3835 9.53382 10.4106 9.5166 10.4363C9.51552 10.4378 9.51408 10.4394 9.513 10.441C9.49338 10.4698 9.471 10.4959 9.44748 10.5205C9.44094 10.5272 9.43428 10.5332 9.42738 10.5396C9.40668 10.5594 9.3849 10.5774 9.36174 10.5939C9.3546 10.5991 9.34776 10.6045 9.34026 10.6095C9.31056 10.6289 9.27942 10.646 9.24702 10.66C9.24 10.6632 9.23268 10.665 9.22554 10.6678C9.19818 10.6784 9.17046 10.6872 9.14184 10.6938C9.13158 10.6963 9.12144 10.6985 9.111 10.7004C9.07428 10.7071 9.03708 10.7117 8.9994 10.7117C8.99178 10.7117 8.98398 10.7094 8.97636 10.7091C8.94024 10.7077 8.90448 10.7049 8.8701 10.6975C8.85936 10.6952 8.8488 10.6905 8.83806 10.6876C8.80602 10.6789 8.7747 10.6692 8.74482 10.6558C8.7414 10.6541 8.7378 10.6538 8.73438 10.6522L5.28345 9.02448C4.97253 8.8779 4.83933 8.50692 4.98591 8.19599C5.13249 7.88525 5.50348 7.75187 5.8144 7.89845L8.37737 9.1071V3.73497C8.37737 3.39122 8.65608 3.11252 8.99982 3.11252C9.34356 3.11252 9.62226 3.39122 9.62226 3.73497V10.0891H9.62238C9.62238 10.0928 9.6213 10.0965 9.6213 10.1003Z" fill="#66C4FF"/>
</svg>
